X:1
T:Bannerman's Quadrille
M:C|
L:1/4
Q:1/4=220
C:Bob McQuillen
R:march
B:Bob's Note Book 9 #9
K:D
"A7" F G | "D" A>B A G | F A d A | "G" B>c d B | "D" A3 d |
"A7" c>B c d | e c d e | "D" f>g f d | A G "A7"  FG | !
"D" A>B A G | F A d A | "G" B>c dB | "D" A3 d |
"G" B>A "A7" B c | "D" d f "A7" a g | "D" f2 "A7" e2 | "D" d2 "A7" f g | !
"D" a2 a>b | a f d f | "Em" g f e d | B2 "A7" d e |
"D" f>e d A | "G" B A "D" f a | "Bm" g f "Em" e d | "A7" e2 f g | !
"D" a2 a>b | a f d f | "Em" g f e d | "G" B2 d B |
"D" A>B A G | F A "Bm" dg | "Em" f e/2d/2 "A7" e c | "D" d2 ||
